X:173
T:The Sailor's Return
T:The Belharbour
S:Paul McGrattan : The Frost is All Over
Z:Philippe Murphy
R:reel
M:4/4
L:1/8
K:G
DG3 DGBd | g2dg egdB | A3G AcBA | GBAF GFEF |
DG3 DGBd | g2dg egdB | GA (3Bcd gedc |1 BGAF G3E :|2 BGAF G3B |
dggf gd (3Bcd | g2af gfed | eaag a3g | e2ag edBc |
dggf gd (3Bcd | g2af gedB | GA (3Bcd gedc |1 BGAF G2Bc :|2 BGAF G3B |]
